src/pos-icons/ray-vertex.svg

<svg height="24" viewBox="0 0 24 24" width="24" xmlns="http://www.w3.org/2000/svg"><path d="m2 11h7.17c.41-1.17 1.52-2 2.83-2s2.42.83 2.83 2h7.17v2h-7.17c-.41 1.17-1.52 2-2.83 2s-2.42-.83-2.83-2h-7.17z"/></svg>

<?xml version="1.0" encoding="UTF-8"?><!DOCTYPE svg PUBLIC "-//W3C//DTD SVG 1.1//EN" "http://www.w3.org/Graphics/SVG/1.1/DTD/svg11.dtd"><svg xmlns="http://www.w3.org/2000/svg" xmlns:xlink="http://www.w3.org/1999/xlink" version="1.1" id="mdi-ray-vertex" width="24" height="24" viewBox="0 0 24 24"><path d="M2,11H9.17C9.58,9.83 10.69,9 12,9C13.31,9 14.42,9.83 14.83,11H22V13H14.83C14.42,14.17 13.31,15 12,15C10.69,15 9.58,14.17 9.17,13H2V11Z" /></svg>
